images/ai-ico.svg

<svg enable-background="new 0 0 86 83.6" viewBox="0 0 86 83.6" xmlns="http://www.w3.org/2000/svg"><g fill="#576371"><path d="m35.9 23.3c-.9 4.6-3 12.4-4.6 18.5h9.3c-1.2-4.4-3.8-13.9-4.7-18.5z"/><path d="m.8 84h86.4v-84h-86.4zm64.9-24.2c0 .3-.1.5-.5.5h-6.1c-.4 0-.5-.2-.5-.5v-31c0-.3.1-.5.5-.5h6.2c.3 0 .5.1.5.5v31zm-3.5-43.9c2.4 0 4 1.6 4 4 0 2.6-1.7 4-4.1 4-2.3 0-3.9-1.4-3.9-4 0-2.5 1.8-4 4-4zm-42.4 43.8 11.2-39c.2-.7.3-1.3.4-3.3 0-.3.1-.4.3-.4h8.2c.3 0 .4.1.5.4l12.5 42.4c.1.3 0 .5-.3.5h-6.6c-.3 0-.5-.1-.6-.4l-3.2-11.8h-12.6l-3.1 11.8c-.1.3-.2.4-.6.4h-5.8c-.3 0-.4-.2-.3-.6z"/></g></svg>

<?xml version="1.0" encoding="utf-8"?>
<!-- Generator: Adobe Illustrator 22.1.0, SVG Export Plug-In . SVG Version: 6.00 Build 0)  -->
<svg version="1.1" id="Layer_1" xmlns="http://www.w3.org/2000/svg" xmlns:xlink="http://www.w3.org/1999/xlink" x="0px" y="0px"
	 viewBox="0 0 86 83.6" style="enable-background:new 0 0 86 83.6;" xml:space="preserve">
<style type="text/css">
	.st0{fill:#576371;}
</style>
<g>
	<path class="st0" d="M35.9,23.3L35.9,23.3c-0.9,4.6-3,12.4-4.6,18.5h9.3C39.4,37.4,36.8,27.9,35.9,23.3z"/>
	<path class="st0" d="M0.8,84h86.4V0H0.8V84z M65.7,59.8c0,0.3-0.1,0.5-0.5,0.5h-6.1c-0.4,0-0.5-0.2-0.5-0.5V28.8h0
		c0-0.3,0.1-0.5,0.5-0.5h6.2c0.3,0,0.5,0.1,0.5,0.5V59.8z M62.2,15.9c2.4,0,4,1.6,4,4c0,2.6-1.7,4-4.1,4c-2.3,0-3.9-1.4-3.9-4
		C58.2,17.4,60,15.9,62.2,15.9z M19.8,59.7l11.2-39c0.2-0.7,0.3-1.3,0.4-3.3c0-0.3,0.1-0.4,0.3-0.4h8.2c0.3,0,0.4,0.1,0.5,0.4
		l12.5,42.4c0.1,0.3,0,0.5-0.3,0.5H46c-0.3,0-0.5-0.1-0.6-0.4l-3.2-11.8H29.6l-3.1,11.8c-0.1,0.3-0.2,0.4-0.6,0.4h-5.8
		C19.8,60.3,19.7,60.1,19.8,59.7z"/>
</g>
</svg>
